X: 4203
T: CROSSING THE CHANNEL
R: Slip Jig
%R: slip-jig
B: James Kerr "Merry Melodies" v.4 p.23 #203
Z: 2016 John Chambers <jc:trillian.mit.edu>
M: 9/8
L: 1/8
K: D
|:\
A2A AFA (B2d) | f2f fed (e2f) |\
aba afd cBA | def gec d3 ::\
a2a aba fed | gfa ged cBA |\
a2a aba fed | def gec d3 :|

%%sep 1 1 500
%%sep 1 1 500

